X:1
T: Elinor
N:
C:Nathaniel Kynaston
S:Tune is "Bonny Grey-Ey'd Morn"
A:
O:
R:
M:4/4
K:D
I:speed 200
%W: A1
% voice 1 (1 lines, 53 notes)
K:D
M:4/4
L:1/16
A2 |d2 c2 d2 e2 f4 e2 d2 |f2 g2 a4 a6 b2 |a2 b2 a2 f2 g2 f2 e2 d2 |c2 d2 e2 f2 e6 f2 |g2 f2 e2 d2 c6 c2 |d2 c2 B2 A2 ^G6 E2 |A2 c2 B2 d2 c2 e2 f2 e2 |d2 c2 B2 A2 A6 A2 |
%W: A2
% voice 1 (1 lines, 52 notes)
d2 c2 d2 e2 f4 e2 d2 |f2 g2 a4 a6 b2 |a2 b2 a2 f2 g2 f2 e2 d2 |c2 d2 e2 f2 e6 f2 |g2 f2 e2 d2 c6 c2 |d2 c2 B2 A2 ^G6 E2 |A2 c2 B2 d2 c2 e2 f2 e2 |d2 c2 B2 A2 A6 e2 |
%W: B1
% voice 1 (1 lines, 50 notes)
e2 c2 e2 c2 A6 a2 |a2 f2 a2 f2 d6 f2 |g2 B2 e2 c2 ^A6 f2 |e2 d2 c2 B2 B6 F2 |A2 c2 d2 B2 g6 f2 |f2 B2 e2 d2 c6 A2 |d2 f2 e2 g2 f2 a2 b2 a2 |g2 f2 e2 d2 d6 e2 |
%W: B2
% voice 1 (1 lines, 49 notes)
e2 c2 e2 c2 A6 a2 |a2 f2 a2 f2 d6 f2 |g2 B2 e2 c2 ^A6 f2 |e2 d2 c2 B2 B6 F2 |A2 c2 d2 B2 g6 f2 |f2 B2 e2 d2 c6 A2 |d2 f2 e2 g2 f2 a2 b2 a2 |g2 f2 e2 d2 d6 ||
